X: 191
T: Haenschen klein ging allein
M: 4/4
N: D1022
N: DVA-Signatur A 218 598
N: Transposed and made shorter for testing
N: Original at
N: https://abcnotation.com/tunePage?a=ifdo.ca/~seymour/runabc/esac/dva0/0190
O: Europa, Mitteleuropa, Deutschland, Baden, Freiburg /Br., Ebnet
R: Kinder - Lied
L: 1/4
K: D
A1 F1 F2 | G1 E1 E2 | D1 E1 F1 G1 |A1 A1 A2 |
A1 F1 F2 | G1 E1 E2 | D1 F1 A1 A1 | D4      |
